src/svg/issue-opened.svg

<svg height="16" width="14" xmlns="http://www.w3.org/2000/svg" viewBox="0 0 14 16">
  <path d="M7 2.3c3.14 0 5.7 2.56 5.7 5.7S10.14 13.7 7 13.7 1.3 11.14 1.3 8s2.56-5.7 5.7-5.7m0-1.3C3.14 1 0 4.14 0 8s3.14 7 7 7 7-3.14 7-7S10.86 1 7 1z m1 3H6v5h2V4z m0 6H6v2h2V10z" />
</svg>

<?xml version="1.0" encoding="UTF-8" standalone="no"?>
<svg width="14px" height="16px" viewBox="0 0 14 16" version="1.1" xmlns="http://www.w3.org/2000/svg" xmlns:xlink="http://www.w3.org/1999/xlink">
    <!-- Generator: Sketch 3.7.1 (28215) - http://www.bohemiancoding.com/sketch -->
    <title>issue-opened</title>
    <desc>Created with Sketch.</desc>
    <defs></defs>
    <g id="Octicons" stroke="none" stroke-width="1" fill="none" fill-rule="evenodd">
        <g id="issue-opened" fill="#000000">
            <path d="M7,2.3 C10.14,2.3 12.7,4.86 12.7,8 C12.7,11.14 10.14,13.7 7,13.7 C3.86,13.7 1.3,11.14 1.3,8 C1.3,4.86 3.86,2.3 7,2.3 L7,2.3 Z M7,1 C3.14,1 0,4.14 0,8 C0,11.86 3.14,15 7,15 C10.86,15 14,11.86 14,8 C14,4.14 10.86,1 7,1 L7,1 Z M8,4 L6,4 L6,9 L8,9 L8,4 L8,4 Z M8,10 L6,10 L6,12 L8,12 L8,10 L8,10 Z" id="Shape"></path>
        </g>
    </g>
</svg>
